X:1
T: The Duke of Manchester's Fancy
C:R. Mackintosh
R:Strathspey
Q: 128
K:Bb
M:4/4
L:1/16
|:F2|FB3 B3A G3A B3c|d2G2 cdcB A2F2 F2GE|DFGA B3A G2B2 c2e2|d3B dcBA B2B2 B2F2|
FB3 B3A G3A B3c|d2G2 cdcB A2F2 F2GE|DFGA B3A G2B2 c2e2|d3B dcBA B2B2 B2Bc|
d2f2 g2e2 c2e2 f2d2|BABG edcB ABcA F2E2|D2B2 B3A G2=B2 c3e|df3 cBcd B2B2 B2Bc|
d2f2 g2e2 c2e2 f2d2|BABG edcB ABcA F2E2|D2B2 B3A G2=B2 c3e|df3 cBcd B2B2 B2:|
